; generated by Slic3r 1.2.7-dev on 2015-04-26 at 20:23:37

; external perimeters extrusion width = 0.40mm
; perimeters extrusion width = 0.48mm
; infill extrusion width = 0.48mm
; solid infill extrusion width = 0.48mm
; top infill extrusion width = 0.48mm
; support material extrusion width = 0.40mm

M107
M190 S115 ; set bed temperature
M104 S230 ; set temperature
G92; set origin (0,0,0,0)
M109 S230 ; wait for temperature to be reached
G21 ; set units to millimeters
G90 ; use absolute coordinates
M82 ; use absolute distances for extrusion
G92 E0
G1 E-1.00000 F1800.00000
G92 E0
G1 Z0.200 F1800.000
G1 X22.492 Y28.086 F1800.000
G1 E1.00000 F1800.00000
G1 X22.985 Y27.691 E1.03206 F540.000
G1 X24.227 Y26.852 E1.10820
G1 X25.340 Y26.224 E1.17309
G1 X26.186 Y25.803 E1.22109
G1 X27.208 Y25.358 E1.27771
G1 X28.076 Y25.030 E1.32481
G1 X29.028 Y24.724 E1.37559
G1 X29.846 Y24.502 E1.41864
G1 X31.735 Y24.092 E1.51679
G1 X33.056 Y23.911 E1.58452
G1 X60.174 Y22.165 E2.96449
G1 X61.011 Y22.149 E3.00700
G1 X61.799 Y22.170 E3.04706
G1 X63.235 Y22.237 E3.12006 F540.000
G1 X63.997 Y22.310 E3.15893
G1 X64.656 Y22.398 E3.19271
G1 X66.030 Y22.655 E3.26369
G1 X66.742 Y22.829 E3.30091
G1 X68.048 Y23.221 E3.37015
G1 X68.698 Y23.455 E3.40525
G1 X69.363 Y23.722 E3.44164
G1 X70.054 Y24.034 E3.48011
G1 X70.869 Y24.445 E3.52647
G1 X71.500 Y24.779 E3.56274
G1 X72.253 Y25.223 E3.60714
G1 X73.374 Y25.984 E3.67596
G1 X74.453 Y26.831 E3.74559
G1 X75.008 Y27.317 E3.78307
G1 X76.017 Y28.303 E3.85470
G1 X76.473 Y28.797 E3.88883
G1 X76.976 Y29.386 E3.92818
G1 X77.405 Y29.926 E3.96322
G1 X77.880 Y30.572 E4.00395
G1 X78.288 Y31.175 E4.04090
G1 X78.729 Y31.888 E4.08347
G1 X79.101 Y32.545 E4.12182
G1 X79.504 Y33.333 E4.16679
G1 X79.841 Y34.069 E4.20787
G1 X80.199 Y34.949 E4.25612
G1 X80.489 Y35.773 E4.30048
G1 X80.789 Y36.770 E4.35334
G1 X81.020 Y37.722 E4.40312
G1 X81.238 Y38.882 E4.46303
G1 X81.379 Y40.012 E4.52086
G1 X81.468 Y41.429 E4.59296
G1 X81.486 Y42.007 E4.62234
G1 X81.486 Y51.570 E5.10799
G1 X81.088 Y54.255 E5.24581
G1 X80.505 Y55.718 E5.32580
G1 X79.957 Y56.810 E5.38784
G1 X78.399 Y59.032 E5.52566
G1 X76.263 Y60.706 E5.66348
G1 X73.733 Y61.689 E5.80131
G1 X72.119 Y61.908 E5.88404
G1 X35.421 Y63.643 E7.74976
G1 X34.259 Y63.659 E7.80878
G1 X33.568 Y63.639 E7.84389
G1 X32.795 Y63.588 E7.88324
G1 X32.124 Y63.519 E7.91749
G1 X31.377 Y63.414 E7.95577
G1 X30.009 Y63.146 E8.02661
G1 X28.686 Y62.789 E8.09615
G1 X27.404 Y62.346 E8.16505
G1 X26.165 Y61.821 E8.23341
G1 X24.967 Y61.214 E8.30159
G1 X23.810 Y60.526 E8.36994
G1 X22.695 Y59.754 E8.43880
G1 X21.623 Y58.897 E8.50852
G1 X20.595 Y57.951 E8.57946
G1 X20.131 Y57.476 E8.61319
G1 X19.616 Y56.910 E8.65206
G1 X19.175 Y56.387 E8.68680
G1 X18.687 Y55.765 E8.72692
G1 X18.269 Y55.187 E8.76317
G1 X17.814 Y54.502 E8.80493
G1 X17.429 Y53.871 E8.84244
G1 X17.009 Y53.116 E8.88635
G1 X16.656 Y52.413 E8.92629
G1 X16.279 Y51.573 E8.97307
G1 X15.968 Y50.787 E9.01596
G1 X15.643 Y49.842 E9.06673
G1 X15.385 Y48.948 E9.11396
G1 X15.130 Y47.863 E9.17057
G1 X14.947 Y46.816 E9.22456
G1 X14.796 Y45.522 E9.29070
G1 X14.738 Y44.718 E9.33166
G1 X14.695 Y43.210 E9.40825
G1 X15.016 Y40.515 E9.54608
G1 X15.672 Y38.798 E9.63946
G1 X19.161 Y31.837 E10.03486
G1 X21.650 Y28.760 E10.23587
G1 X22.445 Y28.123 E10.28758
G1 X22.885 Y28.576 F1800.000
G1 X23.377 Y28.181 E10.31964 F540.000
G1 X24.535 Y27.399 E10.39061
G1 X25.648 Y26.772 E10.45550
G1 X26.437 Y26.379 E10.50025
G1 X27.459 Y25.934 E10.55686
G1 X28.268 Y25.628 E10.60077
G1 X29.220 Y25.323 E10.65155
G1 X29.983 Y25.116 E10.69168
G1 X31.865 Y24.707 E10.78949
G1 X33.097 Y24.538 E10.85262
G1 X60.214 Y22.792 E12.23259
G1 X60.994 Y22.777 E12.27222
G1 X61.783 Y22.798 E12.31227
G1 X63.175 Y22.862 E12.38303 F540.000
G1 X64.551 Y23.018 E12.45337
G1 X65.882 Y23.266 E12.52212
G1 X67.169 Y23.600 E12.58965
G1 X67.858 Y23.820 E12.62637
G1 X68.464 Y24.038 E12.65908
G1 X69.128 Y24.305 E12.69547
G1 X69.772 Y24.596 E12.73133
G1 X71.207 Y25.334 E12.81327
G1 X71.909 Y25.748 E12.85466
G1 X72.510 Y26.143 E12.89117
G1 X73.573 Y26.924 E12.95818
G1 X74.039 Y27.304 E12.98871
G1 X75.040 Y28.210 E13.05727
G1 X75.995 Y29.206 E13.12735
G1 X76.499 Y29.794 E13.16670
G1 X76.899 Y30.298 E13.19936
G1 X77.374 Y30.944 E13.24009
G1 X77.754 Y31.506 E13.27453
G1 X78.195 Y32.219 E13.31710
G1 X78.542 Y32.832 E13.35284
G1 X78.945 Y33.620 E13.39782
G1 X79.259 Y34.305 E13.43611
G1 X79.617 Y35.186 E13.48436
G1 X79.888 Y35.953 E13.52571
G1 X80.187 Y36.950 E13.57856
G1 X80.403 Y37.838 E13.62497
G1 X80.621 Y38.998 E13.68488
G1 X80.752 Y40.051 E13.73879
G1 X80.857 Y42.007 E13.83826
G1 X80.857 Y51.570 E14.32391
G1 X80.460 Y54.159 E14.45695
G1 X79.943 Y55.436 E14.52690
G1 X79.395 Y56.528 E14.58894
G1 X77.880 Y58.665 E14.72198
G1 X75.793 Y60.248 E14.85501
G1 X72.089 Y61.281 E15.05027
G1 X35.391 Y63.015 E16.91599
G1 X34.254 Y63.031 E16.97376
G1 X33.610 Y63.012 E17.00649
G1 X32.837 Y62.961 E17.04584
G1 X32.211 Y62.896 E17.07777
G1 X30.861 Y62.685 E17.14715
G1 X29.558 Y62.386 E17.21505
G1 X28.294 Y62.001 E17.28213
G1 X27.073 Y61.536 E17.34852
G1 X25.892 Y60.991 E17.41457
G1 X24.751 Y60.367 E17.48062
G1 X23.649 Y59.664 E17.54699
G1 X22.588 Y58.879 E17.61400
G1 X21.569 Y58.010 E17.68200
G1 X21.029 Y57.496 E17.71992
G1 X20.081 Y56.487 E17.79021
G1 X19.669 Y56.000 E17.82260
G1 X19.182 Y55.378 E17.86272
G1 X18.792 Y54.839 E17.89651
G1 X18.337 Y54.154 E17.93827
G1 X17.978 Y53.566 E17.97323
G1 X17.558 Y52.811 E18.01714
G1 X17.229 Y52.155 E18.05437
G1 X16.852 Y51.315 E18.10115
G1 X16.562 Y50.583 E18.14113
G1 X16.237 Y49.638 E18.19190
G1 X15.997 Y48.805 E18.23592
G1 X15.742 Y47.720 E18.29253
G1 X15.571 Y46.743 E18.34286
G1 X15.420 Y45.450 E18.40900
G1 X15.366 Y44.700 E18.44717
G1 X15.323 Y43.192 E18.52377
G1 X15.646 Y40.593 E18.65681
G1 X16.234 Y39.079 E18.73926
G1 X19.723 Y32.119 E19.13465
G1 X22.043 Y29.250 E19.32202
G1 X22.838 Y28.613 E19.37373
G1 E18.37373 F1800.00000
G92 E0
G1 X48.466 Y36.523 F1800.000
G1 E1.00000 F1800.00000
G1 X51.313 Y30.842 E1.32271 F540.000
G1 X52.293 Y30.340 E1.37862
G1 X52.434 Y30.198 E1.38881
G1 X52.626 Y29.817 E1.41047
G1 X55.977 Y27.985 E1.60445
G1 X56.047 Y27.993 E1.60801
G1 X56.236 Y27.955 E1.61778
G1 X56.997 Y27.540 E1.66182
G1 X57.441 Y27.589 E1.68447
G1 X57.544 Y27.583 E1.68971
G1 X59.609 Y27.123 E1.79716
G1 X60.205 Y26.967 E1.82843
G1 X61.868 Y27.010 E1.91292
G1 X62.049 Y26.981 E1.92225
G1 X62.516 Y27.027 E1.94608
G1 X62.909 Y27.038 E1.96604
G1 X63.029 Y27.076 E1.97241
G1 X63.982 Y27.169 E2.02106
G1 X64.098 Y27.163 E2.02698
G1 X64.235 Y27.193 E2.03407
G1 X64.711 Y27.239 E2.05838
G1 X64.941 Y27.368 E2.07177
G1 X65.874 Y27.596 E2.12054
G1 X66.057 Y27.606 E2.12983
G1 X66.295 Y27.698 E2.14279
G1 X66.661 Y27.787 E2.16195
G1 X66.854 Y27.927 E2.17402
G1 X67.652 Y28.248 E2.21772
G1 X67.756 Y28.271 E2.22311
G1 X67.922 Y28.356 E2.23258
G1 X68.487 Y28.584 E2.26354
G1 X68.679 Y28.758 E2.27670
G1 X69.391 Y29.134 E2.31759
G1 X69.599 Y29.191 E2.32853
G1 X69.809 Y29.351 E2.34192
G1 X70.070 Y29.493 E2.35704
G1 X70.226 Y29.667 E2.36892
G1 X70.997 Y30.253 E2.41806
G1 X71.235 Y30.349 E2.43111
G1 X71.558 Y30.675 E2.45441
G1 X71.694 Y30.782 E2.46320
G1 X71.773 Y30.892 E2.47010
G1 X72.519 Y31.644 E2.52388
G1 X72.765 Y31.779 E2.53811
G1 X73.926 Y33.360 E2.63774
G1 X74.017 Y33.443 E2.64399
G1 X74.175 Y33.539 E2.65342
G1 X75.184 Y35.507 E2.76571
G1 X75.266 Y35.609 E2.77234
G1 X75.430 Y35.743 E2.78312
G1 X76.245 Y38.458 E2.92707
G1 X76.318 Y38.584 E2.93446
G1 X76.403 Y38.674 E2.94075
G1 X76.771 Y41.214 E3.07108
G1 X76.728 Y41.300 E3.07597
G1 X76.698 Y41.493 E3.08587
G1 X76.869 Y42.614 E3.14345
G1 X76.728 Y42.894 E3.15937
G1 X76.698 Y43.087 E3.16928
G1 X76.869 Y44.207 E3.22686
G1 X76.728 Y44.488 E3.24278
G1 X76.698 Y44.680 E3.25269
G1 X76.869 Y45.801 E3.31027
G1 X76.728 Y46.082 E3.32619
G1 X76.698 Y46.274 E3.33610
G1 X76.869 Y47.395 E3.39367
G1 X76.728 Y47.675 E3.40960
G1 X76.698 Y47.868 E3.41951
G1 X76.869 Y48.989 E3.47708
G1 X76.681 Y49.365 E3.49844
G1 X76.663 Y49.614 E3.51113
G1 X76.938 Y50.444 E3.55555
G1 X76.681 Y50.959 E3.58477
G1 X76.663 Y51.208 E3.59747
G1 X76.938 Y52.038 E3.64189
G1 X74.875 Y56.155 E3.87575
G1 X72.271 Y57.020 E4.01511
G1 X71.835 Y57.246 E4.04002
G1 X70.572 Y57.082 E4.10473
G1 X64.841 Y57.082 E4.39578
G1 X62.985 Y56.047 E4.50365
G1 X62.830 Y55.796 E4.51865
G1 X62.701 Y55.678 E4.52753
G1 X61.677 Y55.164 E4.58572
G1 X61.534 Y55.130 E4.59317
G1 X61.219 Y55.130 E4.60918
G1 X60.915 Y55.318 E4.62729
G1 X60.496 Y56.155 E4.67484
G1 X57.285 Y57.222 E4.84666
G1 X57.073 Y57.116 E4.85868
G1 X56.931 Y57.082 E4.86613
G1 X52.398 Y57.082 E5.09631
G1 X52.016 Y57.182 E5.11636
G1 X50.335 Y56.978 E5.20238
G1 X48.075 Y55.655 E5.33536
G1 X47.115 Y54.430 E5.41438
G1 X46.846 Y53.524 E5.46241
G1 X45.995 Y53.448 E5.50580
G1 X45.509 Y54.417 E5.56083
G1 X44.679 Y54.693 E5.60525
G1 X44.490 Y54.857 E5.61795
G1 X44.097 Y55.641 E5.66250
G1 X43.099 Y56.171 E5.71989
G1 X42.962 Y56.311 E5.72982
G1 X42.920 Y56.396 E5.73465
G1 X40.647 Y57.630 E5.86598
G1 X40.495 Y57.660 E5.87385
G1 X39.610 Y58.141 E5.92500
G1 X39.238 Y58.100 E5.94401
G1 X39.123 Y58.109 E5.94985
G1 X36.437 Y58.811 E6.09086
G1 X36.248 Y58.749 E6.10099
G1 X36.121 Y58.734 E6.10744
G1 X34.063 Y58.912 E6.21234
G1 X33.904 Y58.836 E6.22128
G1 X33.789 Y58.806 E6.22732
G1 X32.515 Y58.735 E6.29213
G1 X31.912 Y58.682 E6.32286
G1 X31.675 Y58.555 E6.33654
G1 X30.721 Y58.352 E6.38606
G1 X30.558 Y58.346 E6.39432
G1 X30.343 Y58.271 E6.40592
G1 X29.930 Y58.183 E6.42736
G1 X29.728 Y58.045 E6.43978
G1 X28.904 Y57.745 E6.48431
G1 X28.706 Y57.717 E6.49445
G1 X28.417 Y57.568 E6.51096
G1 X28.094 Y57.450 E6.52845
G1 X27.927 Y57.306 E6.53963
G1 X27.173 Y56.909 E6.58288
G1 X26.953 Y56.853 E6.59445
G1 X26.653 Y56.638 E6.61318
G1 X26.391 Y56.497 E6.62830
G1 X26.261 Y56.358 E6.63795
G1 X25.532 Y55.837 E6.68347
G1 X25.297 Y55.748 E6.69626
G1 X24.974 Y55.441 E6.71885
G1 X24.817 Y55.324 E6.72882
G1 X24.728 Y55.206 E6.73631
G1 X23.989 Y54.503 E6.78813
G1 X23.744 Y54.377 E6.80213
G1 X22.556 Y52.860 E6.89998
G1 X22.464 Y52.780 E6.90615
G1 X22.307 Y52.690 E6.91535
G1 X21.264 Y50.815 E7.02432
G1 X21.179 Y50.717 E7.03089
G1 X21.015 Y50.591 E7.04137
G1 X20.102 Y47.937 E7.18393
G1 X20.034 Y47.823 E7.19065
G1 X19.877 Y47.655 E7.20237
G1 X19.506 Y45.078 E7.33458
G1 X19.524 Y44.966 E7.34034
G1 X19.356 Y43.837 E7.39830
G1 X19.433 Y43.683 E7.40702
G1 X19.461 Y43.478 E7.41754
G1 X19.262 Y42.431 E7.47166
G1 X24.195 Y32.587 E8.03084
G1 X25.176 Y32.086 E8.08675
G1 X25.317 Y31.944 E8.09694
G1 X25.508 Y31.562 E8.11861
G1 X28.860 Y29.731 E8.31258
G1 X28.930 Y29.738 E8.31614
G1 X29.118 Y29.701 E8.32592
G1 X29.880 Y29.286 E8.36996
G1 X30.323 Y29.334 E8.39261
G1 X30.426 Y29.329 E8.39784
G1 X32.492 Y28.869 E8.50529
G1 X33.087 Y28.713 E8.53657
G1 X34.750 Y28.756 E8.62105
G1 X34.932 Y28.727 E8.63039
G1 X35.399 Y28.772 E8.65422
G1 X35.792 Y28.783 E8.67417
G1 X35.911 Y28.822 E8.68054
G1 X36.864 Y28.914 E8.72919
G1 X36.981 Y28.909 E8.73511
G1 X37.117 Y28.939 E8.74221
G1 X37.594 Y28.985 E8.76652
G1 X37.824 Y29.114 E8.77991
G1 X38.757 Y29.341 E8.82868
G1 X38.939 Y29.351 E8.83796
G1 X39.177 Y29.444 E8.85092
G1 X39.544 Y29.533 E8.87008
G1 X39.737 Y29.672 E8.88215
G1 X40.535 Y29.994 E8.92585
G1 X40.638 Y30.017 E8.93125
G1 X40.804 Y30.102 E8.94071
G1 X41.370 Y30.330 E8.97167
G1 X41.561 Y30.504 E8.98483
G1 X42.273 Y30.880 E9.02572
G1 X42.481 Y30.937 E9.03666
G1 X42.691 Y31.096 E9.05005
G1 X42.952 Y31.239 E9.06518
G1 X43.109 Y31.413 E9.07706
G1 X43.879 Y31.998 E9.12619
G1 X44.118 Y32.095 E9.13924
G1 X44.440 Y32.420 E9.16254
G1 X44.577 Y32.528 E9.17134
G1 X44.656 Y32.638 E9.17823
G1 X45.401 Y33.390 E9.23202
G1 X45.647 Y33.525 E9.24624
G1 X46.809 Y35.106 E9.34587
G1 X46.899 Y35.189 E9.35213
G1 X47.058 Y35.285 E9.36155
G1 X47.694 Y36.526 E9.43235
G1 X48.406 Y36.523 E9.46851
G1 X48.472 Y37.913 F1800.000
G1 X51.782 Y31.307 E9.84373 F540.000
G1 X52.762 Y30.806 E9.89964
G1 X52.904 Y30.664 E9.90983
G1 X53.098 Y30.277 E9.93180
G1 X56.105 Y28.631 E10.10589
G1 X56.175 Y28.639 E10.10946
G1 X56.364 Y28.601 E10.11923
G1 X57.125 Y28.186 E10.16328
G1 X57.513 Y28.229 E10.18310
G1 X57.684 Y28.200 E10.19192
G1 X59.757 Y27.734 E10.29981
G1 X60.278 Y27.597 E10.32714
G1 X61.924 Y27.640 E10.41077
G1 X62.083 Y27.616 E10.41896
G1 X62.749 Y27.662 E10.45286
G1 X62.831 Y27.688 E10.45720
G1 X64.496 Y27.850 E10.54217
G1 X64.687 Y27.953 E10.55320
G1 X65.796 Y28.223 E10.61115
G1 X65.932 Y28.233 E10.61809
G1 X66.102 Y28.298 E10.62734
G1 X66.373 Y28.364 E10.64151
G1 X66.530 Y28.473 E10.65121
G1 X68.130 Y29.118 E10.73883
G1 X68.299 Y29.268 E10.75029
G1 X69.174 Y29.731 E10.80059
G1 X69.330 Y29.776 E10.80884
G1 X69.470 Y29.882 E10.81773
G1 X69.667 Y29.991 E10.82921
G1 X69.790 Y30.125 E10.83842
G1 X70.701 Y30.817 E10.89651
G1 X70.896 Y30.899 E10.90723
G1 X72.154 Y32.169 E10.99801
G1 X72.355 Y32.283 E11.00978
G1 X73.493 Y33.832 E11.10740
G1 X73.697 Y33.984 E11.12031
G1 X74.685 Y35.911 E11.23029
G1 X74.767 Y36.013 E11.23692
G1 X74.884 Y36.108 E11.24460
G1 X75.686 Y38.780 E11.38624
G1 X75.809 Y38.960 E11.39733
G1 X76.121 Y41.109 E11.50761
G1 X76.077 Y41.197 E11.51262
G1 X76.047 Y41.390 E11.52252
G1 X76.218 Y42.511 E11.58010
G1 X76.077 Y42.791 E11.59603
G1 X76.047 Y42.984 E11.60593
G1 X76.218 Y44.105 E11.66351
G1 X76.077 Y44.385 E11.67943
G1 X76.047 Y44.578 E11.68934
G1 X76.218 Y45.698 E11.74692
G1 X76.077 Y45.979 E11.76284
G1 X76.047 Y46.171 E11.77275
G1 X76.218 Y47.292 E11.83033
G1 X76.077 Y47.573 E11.84625
G1 X76.047 Y47.765 E11.85616
G1 X76.218 Y48.886 E11.91373
G1 X76.002 Y49.316 E11.93816
G1 X75.984 Y49.565 E11.95085
G1 X76.260 Y50.395 E11.99527
G1 X76.002 Y50.910 E12.02449
G1 X75.984 Y51.159 E12.03719
G1 X76.260 Y51.989 E12.08161
G1 X74.430 Y55.641 E12.28903
G1 X72.023 Y56.440 E12.41784
G1 X71.719 Y56.597 E12.43522
G1 X70.613 Y56.454 E12.49183
G1 X65.004 Y56.454 E12.77667
G1 X63.434 Y55.578 E12.86795
G1 X63.271 Y55.314 E12.88371
G1 X63.142 Y55.196 E12.89259
G1 X62.265 Y54.756 E12.94242
G1 X61.930 Y54.502 E12.96376
G1 X60.831 Y54.502 E13.01959
G1 X60.527 Y54.690 E13.03770
G1 X60.051 Y55.641 E13.09173
G1 X57.334 Y56.543 E13.23712
G1 X57.222 Y56.487 E13.24347
G1 X57.079 Y56.454 E13.25092
G1 X52.307 Y56.454 E13.49328
G1 X51.962 Y56.542 E13.51135
G1 X50.540 Y56.370 E13.58413
G1 X48.495 Y55.173 E13.70442
G1 X47.683 Y54.137 E13.77128
G1 X47.233 Y52.620 E13.85161
G1 X47.316 Y51.691 E13.89901
G1 X46.315 Y51.407 E13.95182
G1 X45.064 Y53.903 E14.09361
G1 X44.234 Y54.179 E14.13803
G1 X44.045 Y54.342 E14.15072
G1 X43.625 Y55.180 E14.19831
G1 X42.627 Y55.710 E14.25570
G1 X42.490 Y55.850 E14.26564
G1 X42.447 Y55.938 E14.27062
G1 X40.521 Y56.983 E14.38188
G1 X40.368 Y57.013 E14.38979
G1 X39.483 Y57.495 E14.44097
G1 X39.191 Y57.463 E14.45587
G1 X39.077 Y57.471 E14.46171
G1 X36.457 Y58.156 E14.59921
G1 X36.321 Y58.112 E14.60647
G1 X36.195 Y58.097 E14.61292
G1 X34.179 Y58.271 E14.71567
G1 X33.951 Y58.187 E14.72804
G1 X32.111 Y58.065 E14.82165
G1 X31.914 Y57.964 E14.83293
G1 X30.783 Y57.723 E14.89167
G1 X30.664 Y57.716 E14.89768
G1 X30.516 Y57.666 E14.90563
G1 X30.204 Y57.599 E14.92187
G1 X30.037 Y57.488 E14.93200
G1 X29.041 Y57.126 E14.98585
G1 X28.887 Y57.102 E14.99376
G1 X28.672 Y56.992 E15.00601
G1 X28.435 Y56.906 E15.01884
G1 X28.300 Y56.793 E15.02779
G1 X27.384 Y56.310 E15.08038
G1 X27.206 Y56.262 E15.08970
G1 X26.984 Y56.103 E15.10362
G1 X26.793 Y55.999 E15.11465
G1 X26.691 Y55.893 E15.12207
G1 X25.814 Y55.265 E15.17688
G1 X25.622 Y55.190 E15.18737
G1 X25.274 Y54.879 E15.21106
G1 X25.210 Y54.798 E15.21629
G1 X24.340 Y53.970 E15.27730
G1 X24.139 Y53.862 E15.28888
G1 X22.975 Y52.376 E15.38475
G1 X22.771 Y52.232 E15.39742
G1 X21.749 Y50.395 E15.50415
G1 X21.665 Y50.297 E15.51072
G1 X21.548 Y50.208 E15.51821
G1 X20.653 Y47.606 E15.65793
G1 X20.585 Y47.493 E15.66464
G1 X20.471 Y47.370 E15.67315
G1 X20.156 Y45.185 E15.78528
G1 X20.174 Y45.070 E15.79118
G1 X20.007 Y43.941 E15.84915
G1 X20.090 Y43.775 E15.85859
G1 X20.119 Y43.569 E15.86911
G1 X19.919 Y42.523 E15.92323
G1 X24.665 Y33.053 E16.46114
G1 X25.645 Y32.552 E16.51705
G1 X25.786 Y32.409 E16.52725
G1 X25.980 Y32.022 E16.54922
G1 X28.987 Y30.377 E16.72331
G1 X29.057 Y30.384 E16.72687
G1 X29.246 Y30.347 E16.73665
