; generated by Slic3r 1.2.7-dev on 2015-04-26 at 20:26:48

; external perimeters extrusion width = 0.40mm
; perimeters extrusion width = 0.48mm
; infill extrusion width = 0.48mm
; solid infill extrusion width = 0.48mm
; top infill extrusion width = 0.48mm
; support material extrusion width = 0.40mm

M107
M190 S115 ; set bed temperature
M104 S230 ; set temperature
G92; set origin (0,0,0,0)
M109 S230 ; wait for temperature to be reached
G21 ; set units to millimeters
G90 ; use absolute coordinates
M82 ; use absolute distances for extrusion
G92 E0
G1 E-1.00000 F1800.00000
G92 E0
G1 Z0.200 F1800.000
G1 X33.987 Y33.467 F1800.000
G1 E1.00000 F1800.00000
G1 X36.313 Y32.070 E1.13782 F540.000
G1 X39.865 Y31.361 E1.32175
G1 X57.865 Y31.361 E2.23586
G1 X60.550 Y31.759 E2.37368
G1 X63.004 Y32.918 E2.51150 F540.000
G1 X65.016 Y34.739 E2.64932
G1 X66.413 Y37.066 E2.78715
G1 X67.118 Y40.368 E2.95860
G1 X68.181 Y79.673 E4.95541
G1 X68.184 Y88.523 E5.40485
G1 X67.787 Y91.208 E5.54267
G1 X66.627 Y93.662 E5.68050
G1 X64.806 Y95.674 E5.81832
G1 X62.480 Y97.071 E5.95614
G1 X58.928 Y97.780 E6.14007
G1 X40.928 Y97.780 E7.05418
G1 X38.243 Y97.382 E7.19200
G1 X35.789 Y96.223 E7.32982
G1 X33.777 Y94.402 E7.46764
G1 X32.380 Y92.075 E7.60547
G1 X31.674 Y88.774 E7.77692
G1 X30.612 Y49.468 E9.77373
G1 X30.608 Y40.618 E10.22317
G1 X31.006 Y37.933 E10.36099
G1 X32.166 Y35.479 E10.49882
G1 X33.947 Y33.512 E10.63359
G1 X34.465 Y33.924 F1800.000
G1 X34.599 Y33.783 E10.64348 F540.000
G1 X36.893 Y32.517 E10.77652
G1 X39.865 Y31.990 E10.92980
G1 X57.865 Y31.990 E11.84390
G1 X60.454 Y32.387 E11.97694
G1 X62.805 Y33.544 E12.10998 F540.000
G1 X64.700 Y35.352 E12.24301
G1 X65.965 Y37.646 E12.37605
G1 X66.490 Y40.385 E12.51766
G1 X67.553 Y79.690 E14.51447
G1 X67.556 Y88.523 E14.96305
G1 X67.158 Y91.113 E15.09608
G1 X66.002 Y93.463 E15.22912
G1 X64.193 Y95.359 E15.36216
G1 X61.900 Y96.624 E15.49519
G1 X58.928 Y97.152 E15.64848
G1 X40.928 Y97.152 E16.56258
G1 X38.338 Y96.754 E16.69562
G1 X35.988 Y95.598 E16.82865
G1 X34.093 Y93.789 E16.96169
G1 X32.827 Y91.495 E17.09472
G1 X32.303 Y88.757 E17.23634
G1 X31.240 Y49.451 E19.23314
G1 X31.237 Y40.618 E19.68172
G1 X31.634 Y38.029 E19.81476
G1 X32.791 Y35.678 E19.94780
G1 X34.423 Y33.967 E20.06790
G1 E19.06790 F1800.00000
G92 E0
G1 X37.624 Y37.083 F1800.000
G1 E1.00000 F1800.00000
G1 X38.173 Y36.534 E1.03944 F540.000
G1 X59.557 Y36.534 E2.12536
G1 X61.949 Y38.926 E2.29718
G1 X61.949 Y44.109 E2.56041 F540.000
G1 X61.901 Y44.158 E2.56386
G1 X61.901 Y44.678 E2.59029
G1 X61.949 Y44.726 E2.59375
G1 X61.949 Y50.909 E2.90776
G1 X59.557 Y53.302 E3.07958
G1 X38.173 Y53.302 E4.16550
G1 X35.781 Y50.909 E4.33732
G1 X35.781 Y44.726 E4.65133
G1 X35.829 Y44.678 E4.65479
G1 X35.829 Y44.158 E4.68122
G1 X35.781 Y44.109 E4.68467
G1 X35.781 Y38.926 E4.94790
G1 X37.582 Y37.125 E5.07723
G1 E4.07723 F1800.00000
G92 E0
G1 X36.865 Y37.618 F1800.000
G1 X36.865 Y37.618 F1800.000
G1 X36.718 Y44.678 F1800.000
G1 E1.00000 F1800.00000
G1 X36.718 Y44.158 E1.02643 F540.000
G1 X36.409 Y43.849 E1.04858
G1 X36.409 Y39.186 E1.28537
G1 X38.434 Y37.162 E1.43076
G1 X59.297 Y37.162 E2.49025
G1 X61.321 Y39.186 E2.63563
G1 X61.321 Y43.849 E2.87243
G1 X61.013 Y44.158 E2.89457
G1 X61.013 Y44.678 E2.92100
G1 X61.321 Y44.986 E2.94315
G1 X61.321 Y50.649 E3.23073
G1 X59.297 Y52.674 E3.37611
G1 X38.434 Y52.674 E4.43560
G1 X36.409 Y50.649 E4.58099
G1 X36.409 Y44.986 E4.86857
G1 X36.675 Y44.721 E4.88766
G1 X37.162 Y45.122 F1800.000
G1 X37.606 Y44.678 E4.91957 F540.000
G1 X37.606 Y44.158 E4.94600
G1 X37.038 Y43.589 E4.98684
G1 X37.038 Y39.447 E5.19720
G1 X38.694 Y37.790 E5.31615
G1 X59.036 Y37.790 E6.34921
G1 X60.693 Y39.447 E6.46816
G1 X60.693 Y43.589 E6.67852 F540.000
G1 X60.124 Y44.158 E6.71936
G1 X60.124 Y44.678 E6.74579
G1 X60.693 Y45.247 E6.78663
G1 X60.693 Y50.389 E7.04777
G1 X59.036 Y52.045 E7.16672
G1 X38.694 Y52.045 E8.19978
G1 X37.038 Y50.389 E8.31873
G1 X37.038 Y45.247 E8.57988
G1 X37.120 Y45.165 E8.58575
G1 X37.666 Y45.507 F1800.000
G1 X38.495 Y44.678 E8.64528 F540.000
G1 X38.495 Y44.158 E8.67171
G1 X37.666 Y43.329 E8.73124
G1 X37.666 Y39.707 E8.91517
G1 X38.954 Y38.419 E9.00769
G1 X58.776 Y38.419 E10.01431
G1 X60.064 Y39.707 E10.10683 F540.000
G1 X60.064 Y43.329 E10.29076
G1 X59.235 Y44.158 E10.35028
G1 X59.235 Y44.678 E10.37672
G1 X60.064 Y45.507 E10.43624
G1 X60.064 Y50.129 E10.67095
G1 X58.776 Y51.417 E10.76347
G1 X38.954 Y51.417 E11.77009
G1 X37.666 Y50.129 E11.86261
G1 X37.666 Y45.567 E12.09428
G1 X38.294 Y45.767 F1800.000
G1 X39.383 Y44.678 E12.17249 F540.000
G1 X39.383 Y44.158 E12.19893
G1 X38.294 Y43.068 E12.27714
G1 X38.294 Y39.967 E12.43464
G1 X39.214 Y39.047 E12.50072
G1 X58.516 Y39.047 E13.48091
G1 X59.436 Y39.967 E13.54700
G1 X59.436 Y43.068 E13.70449 F540.000
G1 X58.347 Y44.158 E13.78271
G1 X58.347 Y44.678 E13.80914
G1 X59.436 Y45.767 E13.88736
G1 X59.436 Y49.868 E14.09564
G1 X58.516 Y50.789 E14.16172
G1 X39.214 Y50.789 E15.14191
G1 X38.294 Y49.868 E15.20799
G1 X38.294 Y45.827 E15.41323
G1 X38.923 Y46.027 F1800.000
G1 X39.475 Y45.475 E15.45288 F540.000
G1 X43.055 Y45.475 E15.63467
G1 X43.423 Y45.107 E15.66111
G1 X43.423 Y43.728 E15.73113
G1 X43.055 Y43.360 E15.75757
G1 X39.475 Y43.360 E15.93937
G1 X38.923 Y42.808 E15.97902
G1 X38.923 Y40.227 E16.11008
G1 X39.475 Y39.675 E16.14973
G1 X58.255 Y39.675 E17.10348
G1 X58.808 Y40.227 E17.14313 F540.000
G1 X58.808 Y42.808 E17.27419
G1 X58.255 Y43.360 E17.31384
G1 X54.676 Y43.360 E17.49564
G1 X54.308 Y43.728 E17.52208
G1 X54.308 Y45.107 E17.59210
G1 X54.676 Y45.475 E17.61854
G1 X58.255 Y45.475 E17.80033
G1 X58.808 Y46.027 E17.83998
G1 X58.808 Y49.608 E18.02183
G1 X58.255 Y50.160 E18.06148
G1 X39.475 Y50.160 E19.01523
G1 X38.923 Y49.608 E19.05488
G1 X38.923 Y46.087 E19.23368
G1 X39.735 Y46.104 F1800.000
G1 X43.683 Y46.104 E19.43417 F540.000
G1 X44.051 Y45.736 E19.46060
G1 X44.051 Y43.100 E19.59445
G1 X43.683 Y42.732 E19.62088
G1 X39.735 Y42.732 E19.82137
G1 X39.551 Y42.548 E19.83459
G1 X39.551 Y40.488 E19.93921
G1 X39.735 Y40.304 E19.95243
G1 X57.995 Y40.304 E20.87975
G1 X58.179 Y40.488 E20.89297
G1 X58.179 Y42.548 E20.99760
G1 X57.995 Y42.732 E21.01081
G1 X54.047 Y42.732 E21.21130
G1 X53.679 Y43.100 E21.23774
G1 X53.679 Y45.736 E21.37158
G1 X54.047 Y46.104 E21.39801
G1 X57.995 Y46.104 E21.59850
G1 X58.179 Y46.288 E21.61172
G1 X58.179 Y49.348 E21.76713
G1 X57.995 Y49.532 E21.78035
G1 X39.735 Y49.532 E22.70767
G1 X39.551 Y49.348 E22.72088
G1 X39.551 Y46.288 E22.87630
G1 X39.693 Y46.146 E22.88647
G1 E21.88647 F1800.00000
G92 E0
G1 X39.451 Y50.218 F1800.000
G1 X39.735 Y75.839 F1800.000
G1 E1.00000 F1800.00000
G1 X60.619 Y75.839 E2.06059 F540.000
G1 X63.012 Y78.232 E2.23240
G1 X63.012 Y83.415 E2.49563 F540.000
G1 X62.964 Y83.463 E2.49909
G1 X62.964 Y83.984 E2.52552
G1 X63.012 Y84.032 E2.52897
G1 X63.012 Y90.215 E2.84298
G1 X60.619 Y92.607 E3.01480
G1 X39.236 Y92.607 E4.10073
G1 X36.844 Y90.215 E4.27254
G1 X36.844 Y84.032 E4.58656
G1 X36.892 Y83.984 E4.59001
G1 X36.892 Y83.463 E4.61644
G1 X36.844 Y83.415 E4.61990
G1 X36.844 Y78.232 E4.88312
G1 X39.236 Y75.839 E5.05494
G1 X39.675 Y75.839 E5.07723
G1 E4.07723 F1800.00000
G92 E0
G1 X37.780 Y83.984 F1800.000
G1 E1.00000 F1800.00000
G1 X37.780 Y83.463 E1.02643 F540.000
G1 X37.472 Y83.155 E1.04858
G1 X37.472 Y78.492 E1.28537
G1 X39.496 Y76.468 E1.43076
G1 X60.359 Y76.468 E2.49025
G1 X62.383 Y78.492 E2.63563
G1 X62.383 Y83.155 E2.87243
G1 X62.075 Y83.463 E2.89457
G1 X62.075 Y83.984 E2.92100
G1 X62.383 Y84.292 E2.94315
G1 X62.383 Y89.955 E3.23073
G1 X60.359 Y91.979 E3.37611
G1 X39.496 Y91.979 E4.43560
G1 X37.472 Y89.955 E4.58099
G1 X37.472 Y84.292 E4.86857
G1 X37.738 Y84.026 E4.88766
G1 X38.225 Y84.428 F1800.000
G1 X38.669 Y83.984 E4.91957 F540.000
G1 X38.669 Y83.463 E4.94600
G1 X38.100 Y82.895 E4.98684
G1 X38.100 Y78.752 E5.19720
G1 X39.757 Y77.096 E5.31615
G1 X60.099 Y77.096 E6.34921
G1 X61.755 Y78.752 E6.46816
G1 X61.755 Y82.895 E6.67852 F540.000
G1 X61.187 Y83.463 E6.71936
G1 X61.187 Y83.984 E6.74579
G1 X61.755 Y84.552 E6.78663
G1 X61.755 Y89.695 E7.04777
G1 X60.099 Y91.351 E7.16672
G1 X39.757 Y91.351 E8.19978
G1 X38.100 Y89.695 E8.31873
G1 X38.100 Y84.552 E8.57988
G1 X38.182 Y84.470 E8.58575
G1 X38.729 Y84.813 F1800.000
G1 X39.557 Y83.984 E8.64528 F540.000
G1 X39.557 Y83.463 E8.67171
G1 X38.729 Y82.634 E8.73124
G1 X38.729 Y79.013 E8.91517
G1 X40.017 Y77.724 E9.00769
G1 X59.839 Y77.724 E10.01431
G1 X61.127 Y79.013 E10.10683 F540.000
G1 X61.127 Y82.634 E10.29076
G1 X60.298 Y83.463 E10.35028
G1 X60.298 Y83.984 E10.37672
G1 X61.127 Y84.813 E10.43624
G1 X61.127 Y89.434 E10.67095
G1 X59.839 Y90.723 E10.76347
G1 X40.017 Y90.723 E11.77009
G1 X38.729 Y89.434 E11.86261
G1 X38.729 Y84.873 E12.09428
G1 X39.357 Y85.073 F1800.000
G1 X40.446 Y83.984 E12.17249 F540.000
G1 X40.446 Y83.463 E12.19893
G1 X39.357 Y82.374 E12.27714
G1 X39.357 Y79.273 E12.43464
G1 X40.277 Y78.353 E12.50072
G1 X59.578 Y78.353 E13.48091
G1 X60.498 Y79.273 E13.54700
G1 X60.498 Y82.374 E13.70449 F540.000
G1 X59.409 Y83.463 E13.78271
G1 X59.409 Y83.984 E13.80914
G1 X60.498 Y85.073 E13.88736
G1 X60.498 Y89.174 E14.09564
G1 X59.578 Y90.094 E14.16172
G1 X40.277 Y90.094 E15.14191
G1 X39.357 Y89.174 E15.20799
G1 X39.357 Y85.133 E15.41323
G1 X39.985 Y85.333 F1800.000
G1 X40.537 Y84.781 E15.45288 F540.000
G1 X44.117 Y84.781 E15.63467
G1 X44.485 Y84.413 E15.66111
G1 X44.485 Y83.034 E15.73113
G1 X44.117 Y82.666 E15.75757
G1 X40.537 Y82.666 E15.93937
G1 X39.985 Y82.114 E15.97902
G1 X39.985 Y79.533 E16.11008
G1 X40.537 Y78.981 E16.14973
G1 X59.318 Y78.981 E17.10348
G1 X59.870 Y79.533 E17.14313 F540.000
G1 X59.870 Y82.114 E17.27419
G1 X59.318 Y82.666 E17.31384
G1 X55.738 Y82.666 E17.49564
G1 X55.370 Y83.034 E17.52208
G1 X55.370 Y84.413 E17.59210
G1 X55.738 Y84.781 E17.61854
G1 X59.318 Y84.781 E17.80033
G1 X59.870 Y85.333 E17.83998
G1 X59.870 Y88.914 E18.02183
G1 X59.318 Y89.466 E18.06148
G1 X40.537 Y89.466 E19.01523
G1 X39.985 Y88.914 E19.05488
G1 X39.985 Y85.393 E19.23368
G1 X40.798 Y85.409 F1800.000
G1 X44.745 Y85.409 E19.43417 F540.000
G1 X45.114 Y85.041 E19.46060
G1 X45.114 Y82.406 E19.59445
G1 X44.745 Y82.038 E19.62088
G1 X40.798 Y82.038 E19.82137
G1 X40.614 Y81.854 E19.83459
G1 X40.614 Y79.793 E19.93921
G1 X40.798 Y79.609 E19.95243
G1 X59.058 Y79.609 E20.87975
G1 X59.242 Y79.793 E20.89297
G1 X59.242 Y81.854 E20.99760
G1 X59.058 Y82.038 E21.01081
G1 X55.110 Y82.038 E21.21130
G1 X54.742 Y82.406 E21.23774
G1 X54.742 Y85.041 E21.37158
G1 X55.110 Y85.409 E21.39801
G1 X59.058 Y85.409 E21.59850
G1 X59.242 Y85.593 E21.61172
G1 X59.242 Y88.654 E21.76713
G1 X59.058 Y88.838 E21.78035
G1 X40.798 Y88.838 E22.70767
G1 X40.614 Y88.654 E22.72088
G1 X40.614 Y85.593 E22.87630
G1 X40.755 Y85.452 E22.88647
G1 E21.88647 F1800.00000
G92 E0
G1 X54.228 Y85.923 F1800.000
G1 E1.00000 F1800.00000
G1 X58.728 Y85.923 E1.12987 F378.000
G1 X58.728 Y88.323 E1.19914
G1 X41.128 Y88.323 E1.70709
G1 X41.128 Y85.923 E1.77636
G1 X45.628 Y85.923 E1.90623
G1 X45.628 Y81.523 E2.03322
G1 X41.128 Y81.523 E2.16309
G1 X41.128 Y80.123 E2.20350
G1 X58.728 Y80.123 E2.71145
G1 X58.728 Y81.523 E2.75185
G1 X54.228 Y81.523 E2.88172
G1 X54.228 Y85.863 E3.00698
G1 X54.228 Y86.323 F1800.000
G1 X53.735 Y86.416 F1800.000
G1 X58.235 Y86.416 E3.23551 F540.000
G1 X58.235 Y87.831 E3.30735
G1 X41.620 Y87.831 E4.15109
G1 X41.620 Y86.416 E4.22293
G1 X46.120 Y86.416 E4.45146
G1 X46.120 Y81.031 E4.72495
G1 X41.620 Y81.031 E4.95347
G1 X41.620 Y80.616 E4.97453
G1 X58.235 Y80.616 E5.81828
G1 X58.235 Y81.031 E5.83933
G1 X53.735 Y81.031 E6.06786
G1 X53.735 Y86.356 E6.33830
G1 X53.107 Y87.202 F1800.000
G1 X46.749 Y87.202 E6.66118 F540.000
G1 X46.749 Y81.244 E6.96375
G1 X53.107 Y81.244 E7.28663
G1 X53.107 Y87.142 E7.58615
G1 X53.421 Y87.123 F1800.000
G1 X57.921 Y87.123 E7.93674 F360.000
G1 X52.628 Y86.723 F1800.000
G1 X52.753 Y81.894 F1800.000
G1 X52.396 Y81.644 E7.95937 F540.000
G1 X52.753 Y82.677 E8.01607
G1 X51.278 Y81.644 E8.10951
G1 X50.159 Y81.644 E8.16752
G1 X52.753 Y83.461 E8.33177
G1 X52.753 Y84.244 E8.37239
G1 X49.040 Y81.644 E8.60745
G1 X47.922 Y81.644 E8.66546
G1 X52.753 Y85.027 E8.97134
G1 X52.753 Y85.810 E9.01196
G1 X47.102 Y81.853 E9.36974
G1 X47.102 Y82.636 E9.41035
G1 X52.753 Y86.594 E9.76813
G1 X51.934 Y86.803 E9.81201
G1 X47.102 Y83.420 E10.11788
G1 X47.102 Y84.203 E10.15850
G1 X50.815 Y86.803 E10.39357
G1 X49.696 Y86.803 E10.45157
G1 X47.102 Y84.986 E10.61583
G1 X47.102 Y85.769 E10.65644
G1 X48.578 Y86.803 E10.74988
G1 X47.459 Y86.803 E10.80789
G1 X47.102 Y86.553 E10.83051
G1 X46.435 Y87.123 F1800.000
G1 X41.935 Y87.123 E11.18110 F360.000
G1 E10.18110 F1800.00000
G92 E0
G1 X40.513 Y78.923 F1800.000
G1 X39.451 Y50.218 F1800.000
G1 X53.165 Y46.618 F1800.000
G1 E1.00000 F1800.00000
G1 X57.665 Y46.618 E1.12987 F378.000
G1 X57.665 Y49.018 E1.19914
G1 X40.065 Y49.018 E1.70709
G1 X40.065 Y46.618 E1.77636
G1 X44.565 Y46.618 E1.90623
G1 X44.565 Y42.218 E2.03322
G1 X40.065 Y42.218 E2.16309
G1 X40.065 Y40.818 E2.20350
G1 X57.665 Y40.818 E2.71145
G1 X57.665 Y42.218 E2.75185
G1 X53.165 Y42.218 E2.88172
G1 X53.165 Y46.558 E3.00698
G1 X53.165 Y47.018 F1800.000
G1 X52.672 Y47.111 F1800.000
G1 X57.172 Y47.111 E3.23551 F540.000
G1 X57.172 Y48.525 E3.30735
G1 X40.558 Y48.525 E4.15109
G1 X40.558 Y47.111 E4.22293
G1 X45.058 Y47.111 E4.45146
G1 X45.058 Y41.725 E4.72495
G1 X40.558 Y41.725 E4.95347
G1 X40.558 Y41.311 E4.97453
G1 X57.172 Y41.311 E5.81828
G1 X57.172 Y41.725 E5.83933
G1 X52.672 Y41.725 E6.06786
G1 X52.672 Y47.051 E6.33830
G1 X52.044 Y47.897 F1800.000
G1 X45.686 Y47.897 E6.66118 F540.000
G1 X45.686 Y41.939 E6.96375
G1 X52.044 Y41.939 E7.28663
G1 X52.044 Y47.837 E7.58615
G1 X52.358 Y47.818 F1800.000
G1 X56.858 Y47.818 E7.93674 F360.000
G1 X51.565 Y47.418 F1800.000
G1 X51.691 Y42.589 F1800.000
G1 X51.333 Y42.338 E7.95937 F540.000
G1 X51.691 Y43.372 E8.01607
G1 X50.215 Y42.338 E8.10951
G1 X49.096 Y42.338 E8.16752
G1 X51.691 Y44.155 E8.33177
G1 X51.691 Y44.938 E8.37239
G1 X47.978 Y42.338 E8.60745
G1 X46.859 Y42.338 E8.66546
G1 X51.691 Y45.722 E8.97134
G1 X51.691 Y46.505 E9.01196
G1 X46.039 Y42.548 E9.36974
G1 X46.039 Y43.331 E9.41035
G1 X51.691 Y47.288 E9.76813
G1 X50.871 Y47.497 E9.81201
G1 X46.039 Y44.114 E10.11788
G1 X46.039 Y44.897 E10.15850
G1 X49.752 Y47.497 E10.39357
G1 X48.634 Y47.497 E10.45157
G1 X46.039 Y45.681 E10.61583
G1 X46.039 Y46.464 E10.65644
G1 X47.515 Y47.497 E10.74988
G1 X46.397 Y47.497 E10.80789
G1 X46.039 Y47.247 E10.83051
G1 X45.372 Y47.818 F1800.000
G1 X40.872 Y47.818 E11.18110 F360.000
G1 E10.18110 F1800.00000
G92 E0
G1 Z0.200 F1800.000
M104 S225 ; set temperature
M140 S110 ; wait for bed temperature to be reached
G1 Z0.500 F1800.000
G1 X39.451 Y50.218 F1800.000
G1 X40.513 Y78.923 F1800.000
G1 X53.432 Y86.720 F1800.000
G1 E1.00000 F1800.00000
G1 X57.932 Y86.720 E1.22853 F1800.000
G1 X57.932 Y87.527 E1.26955
G1 X41.924 Y87.527 E2.08248
G1 X41.924 Y86.720 E2.12350
G1 X46.424 Y86.720 E2.35202
G1 X46.424 Y80.920 E2.64657
G1 X53.432 Y80.920 E3.00245
G1 X53.432 Y86.660 E3.29394
G1 X53.850 Y86.301 F1800.000
G1 X58.350 Y86.301 E3.52247 F1800.000
G1 X58.350 Y87.946 E3.60603
G1 X41.505 Y87.946 E4.46151
G1 X41.505 Y86.301 E4.54507
G1 X46.005 Y86.301 E4.77360
G1 X46.005 Y81.146 E5.03536
G1 X41.505 Y81.146 E5.26389
G1 X41.505 Y80.501 E5.29667
G1 X58.350 Y80.501 E6.15215
G1 X58.350 Y81.146 E6.18493
G1 X53.850 Y81.146 E6.41345
G1 X53.850 Y86.241 E6.67217
G1 X54.228 Y85.923 F1800.000
G1 X58.728 Y85.923 E6.85527 F1260.000
G1 X58.728 Y88.323 E6.95293
G1 X41.128 Y88.323 E7.66906
G1 X41.128 Y85.923 E7.76671
G1 X45.628 Y85.923 E7.94982
G1 X45.628 Y81.523 E8.12885
G1 X41.128 Y81.523 E8.31195
G1 X41.128 Y80.123 E8.36892
G1 X58.728 Y80.123 E9.08505
G1 X58.728 Y81.523 E9.14202
G1 X54.228 Y81.523 E9.32512
G1 X54.228 Y85.863 E9.50171
G1 X54.228 Y86.323 F1800.000
G1 X53.222 Y87.123 F1800.000
G1 X57.722 Y87.123 E9.59841 F1200.000
G1 X53.222 Y87.123 E9.95876 F1200.000
G1 X52.790 Y87.304 F1800.000
G1 X52.968 Y87.049 E9.97457 F1800.000
G1 X52.277 Y87.304 E10.01201
G1 X53.177 Y86.019 E10.09185
G1 X53.177 Y85.287 E10.12909
G1 X51.765 Y87.304 E10.25438
G1 X51.253 Y87.304 E10.28045
G1 X53.177 Y84.555 E10.45119
G1 X53.177 Y83.823 E10.48843
